!!!OTL: Es trieb sich ein M&auml;dchen (4-21), S. 31
!!!id: P0582
**kern
*clefG2
*k[]
*G:
{8d
=1
8g
8g
8g
8b
8b
8b
=2
8dd
8dd
8dd
4b
8b
=3
4.cc
4.dd
=4
[2b
8b]}
=5
{8d
=6
8g
8g
8g
8b
8b
8b
=7
8dd
8dd
8dd
4b
8b
=8
4.cc
4.dd
=9
2.b}
=10
{8g
8g
8ee
8ee
8ee
8ee
=11
8ee
8dd
8dd
4dd
8dd
=12
8cc
8cc
8cc
8ee
8dd
8dd
=13
8b
8b
8b
4dd}
=14
{8dd
=15
8dd
8ee
8dd
8ee
8dd
8a
=16
4.cc
4.dd
=17
[2b
8b]}
==
*-
!!!minrhy: 8
!!!meters: 6/8 ] ZZ[4
!!!cut: Es trieb sich ein M&auml;dchen (4-21), S. 31
!!!reg: Lothringen
!!!trd: PINCK, Louis: Verklingende Weisen Bd 4, Kassel 1939
!!!rhy1: X  XXXXXX  XXXX_X  X_.X_.  X__^
!!!rhy2: X  XXXXXX  XXXX_X  X_.X_.  X__.
!! 058
!!!key: P0582  08  G 6/8 ] ZZ[4
!!!mod: SECHSTONSKALA DUR ?]  AMBITUS[9
!!!kad: 3353
!!!akz: 13534533_13534533_16654635_564533_
!!!fot: 'a__av_b__c__
!!!for: 'a__av_b__c__
!!!fok: '^a_^a_~a_Sd_
!! PHRAS[VORWIEGEND AUFTAKTIG]
!!!fkt: Brautwerbung, Standesunterschied
!! LOTH VKL
!! PR[6] 2K[6] 2G[24] 3K[12] 3G[0] 4A[6] 4Ü[0] 5A[0] 6K[0] 6G[0]
!! 7K[0] 7G[0] 8A[0] MEHR[0] SI[47] ABS[17] SR[29] SP[18]
!! ST[4] 2k[12] 2g[24] 3k[0] 3g[0] 4d[12] 4ü[0] 5d[0] 6k[0] 6g[0]
!! 7k[0] 7g[0] 8d[0] mehr[0] si[47] dm[0] sr[35] sp[12]
!! 1F[22] 2F[56] 3F[0] 4F[0] LF[0] 2P[0] 3P[22] 4P[0] TRI[0] DF[3] AB[18]
!! TF[0] U3K[0] U3[0] U4[0] U4Ü[0] U5[0] U6K[0] U6[0] U7K[0] U7[0]
!! N1[28] N2K[0] N2[11] N3K[6] N3[6] N4[17] N4Ü[0] N5[17] N6K[0] N6[11]
!!!n7k: 6] N7[0] O1[0] O2K[0] O2[0] O3K[0] O3[0] HÖ[0
!!!RNB: symbol: &auml;      = a umlaut  (UTF-8: Å„)
